svg/fluentui-system-icons/ic_fluent_video_off_24_filled.svg

<svg width="24" height="24" viewBox="0 0 24 24" fill="none" xmlns="http://www.w3.org/2000/svg">
<path d="M3.28034 2.21968C2.98745 1.92678 2.51257 1.92677 2.21968 2.21966C1.92678 2.51255 1.92677 2.98743 2.21966 3.28032L3.78662 4.84731C2.72676 5.38269 2 6.48147 2 7.75V16.25C2 18.0449 3.45507 19.5 5.25 19.5H12.75C14.2943 19.5 15.5871 18.4229 15.9179 16.9789L20.7194 21.7805C21.0123 22.0734 21.4872 22.0734 21.7801 21.7805C22.073 21.4876 22.073 21.0127 21.7801 20.7198L3.28034 2.21968ZM17 13.8182L21.5042 18.3226C21.8008 18.1491 22 17.8272 22 17.4588V6.54096C22 6.30368 21.9156 6.07414 21.762 5.89334C21.4043 5.47252 20.7732 5.42132 20.3524 5.77899L17 8.62794V13.8182ZM7.68194 4.5L16 12.8182V7.75C16 5.95508 14.5449 4.5 12.75 4.5H7.68194Z" fill="#212121"/>
</svg>

<svg xmlns="http://www.w3.org/2000/svg" width="24" height="24"><path d="M3.28 2.22a.75.75 0 1 0-1.06 1.06l1.567 1.567A3.25 3.25 0 0 0 2 7.75v8.5a3.25 3.25 0 0 0 3.25 3.25h7.5a3.251 3.251 0 0 0 3.168-2.521l4.801 4.802a.75.75 0 0 0 1.061-1.061L3.28 2.22ZM17 13.818l4.504 4.505a1 1 0 0 0 .496-.864V6.54a1 1 0 0 0-1.648-.762L17 8.628v5.19ZM7.682 4.5 16 12.818V7.75a3.25 3.25 0 0 0-3.25-3.25H7.682Z"/></svg>
